X:1
L:1/4
Q:1/4=200
M:4/4
K:D
 A |""D"" d/d/d/d/""A"" A/A/A/A/ |""D"" F/F/ G A A/A/ |""G"" B B/B/""A7"" c c |""D"" d D D z | 
""D"" d d/d/""A"" A A |""D"" F G A z |""G"" B B/B/""A7"" c/c/c/c/ |""D"" d/d/ D D z |""E"" E E e3/2 d/ | 
""A"" c A A z | A A/A/""G"" B/B/ c |""D"" d D D |]
